X:199
T:Big Liza Jane
M:C|
L:1/8
K:D
"D"D2F2A4 |BAF2A2A3A| d2d2dBAB |d3ed4 |
"D"D2F2A4 |BAF2A2AB | "G"d2f2edB2|"A"A3BA4  :|
|:"G"g2ga gfeg |"D"f2fg fe d2 | "A"efed cABc | "D"dcdef4 |
"G"g3fg4|"D"f2fgfed2|"A"efed cAB2|1A3BA4 :|2A2G2F2E2|]
